icons/gate.svg

<?xml version="1.0" encoding="UTF-8"?>
<svg width="15" height="15" viewBox="0 0 15 15" xmlns="http://www.w3.org/2000/svg" id="gate">
  <path d="M1 2.75C1 2.33579 1.33579 2 1.75 2H2.864C2.95393 2 3.04313 2.01618 3.12734 2.04775L6.51334 3.3175C6.80607 3.42728 7 3.70712 7 4.01975V9.98025C7 10.2929 6.80607 10.5727 6.51334 10.6825L3 12V12.25C3 12.6642 2.66421 13 2.25 13H1.75C1.33579 13 1 12.6642 1 12.25V2.75ZM4 8.48648V3.61625C4 3.51204 3.93536 3.41876 3.83778 3.38217L3.33778 3.19467C3.17434 3.13338 3 3.2542 3 3.42875V8.65315C3 8.82379 3.16717 8.94428 3.32906 8.89032L3.82906 8.72365C3.93114 8.68962 4 8.59409 4 8.48648ZM5 4.17875V7.98648C5 8.15712 5.16717 8.27761 5.32906 8.22365L5.82906 8.05698C5.93114 8.02296 6 7.92742 6 7.81981V4.36625C6 4.26204 5.93536 4.16876 5.83778 4.13217L5.33778 3.94467C5.17434 3.88338 5 4.0042 5 4.17875Z"/>
  <path d="M14 2.75C14 2.33579 13.6642 2 13.25 2H12.136C12.0461 2 11.9569 2.01618 11.8727 2.04775L8.48666 3.3175C8.19393 3.42728 8 3.70712 8 4.01975V9.98025C8 10.2929 8.19393 10.5727 8.48666 10.6825L12 12V12.25C12 12.6642 12.3358 13 12.75 13H13.25C13.6642 13 14 12.6642 14 12.25V2.75ZM11.1709 8.72365C11.0689 8.68962 11 8.59409 11 8.48648V3.61625C11 3.51204 11.0646 3.41876 11.1622 3.38217L11.6622 3.19467C11.8257 3.13338 12 3.2542 12 3.42875V8.65315C12 8.82379 11.8328 8.94428 11.6709 8.89032L11.1709 8.72365ZM10 4.17875V7.98648C10 8.15712 9.83283 8.27761 9.67094 8.22365L9.17094 8.05698C9.06886 8.02296 9 7.92742 9 7.81981V4.36625C9 4.26204 9.06464 4.16876 9.16222 4.13217L9.66222 3.94467C9.82566 3.88338 10 4.0042 10 4.17875Z"/>
</svg>

<?xml version="1.0" encoding="UTF-8"?>
<svg width="15" height="15" viewBox="0 0 15 15" xmlns="http://www.w3.org/2000/svg" id="gate">
  <path d="M1 2.75A.75.75 0 0 1 1.75 2h1.114c.09 0 .18.016.263.048l3.386 1.27A.75.75 0 0 1 7 4.02v5.96a.75.75 0 0 1-.487.702L3 12v.25a.75.75 0 0 1-.75.75h-.5a.75.75 0 0 1-.75-.75v-9.5Zm3 5.736v-4.87a.25.25 0 0 0-.162-.234l-.5-.187A.25.25 0 0 0 3 3.429v5.224c0 .17.167.291.33.237l.5-.166A.25.25 0 0 0 4 8.486ZM5 4.18v3.807a.25.25 0 0 0 .33.238l.5-.167A.25.25 0 0 0 6 7.82V4.366a.25.25 0 0 0-.162-.234l-.5-.187A.25.25 0 0 0 5 4.179Zm9-1.43a.75.75 0 0 0-.75-.75h-1.114a.75.75 0 0 0-.263.048l-3.386 1.27A.75.75 0 0 0 8 4.02v5.96a.75.75 0 0 0 .487.702L12 12v.25c0 .414.336.75.75.75h.5a.75.75 0 0 0 .75-.75v-9.5Zm-2.83 5.974a.25.25 0 0 1-.17-.238v-4.87a.25.25 0 0 1 .162-.234l.5-.187a.25.25 0 0 1 .338.234v5.224a.25.25 0 0 1-.33.237l-.5-.166ZM10 4.179v3.807a.25.25 0 0 1-.33.238l-.5-.167A.25.25 0 0 1 9 7.82V4.366a.25.25 0 0 1 .162-.234l.5-.187a.25.25 0 0 1 .338.234Z"/>
</svg>
